!!!!SEGMENT: 074-1-G-006.krn
!!!COM: Fryderyk Chopin
!!!OTL: Precz z moich oczu
!!!OPS: Op. 74
!!!PTL: ZbiÃ³r Å›piewÃ³w polskich z towarzyszeniem fortepianu
!!!PPR: Gebethner
!!!PPP: Warsaw
!!!AGN: Song
!!!NIFC-rismID: 300605192
!!!NIFC-shelfmark: PL-Wbfc 963/n
!!!OMD: Larghetto.
!!!OMD: M. M. [quarter] = 72.
**kern	**kern	**dynam	**kern	**text	**dynam
*part2	*part2	*part2	*part1	*	*part1
*staff3	*staff2	*	*staff1	*	*
*I"PIANO.	*I"PIANO.	*	*I"CANTO.	*	*
*clefF4	*clefG2	*	*clefG2	*	*
*k[b-e-a-d-]	*k[b-e-a-d-]	*	*k[b-e-a-d-]	*	*
*f:	*f:	*	*f:	*	*
*M3/4	*M3/4	*	*M3/4	*	*
*>A	*>A	*>A	*>A	*>A	*>A
=1	=1	=1	=1	=1	=1
*^	*^	*	*	*	*
!	!	!	!	!LO:DY:rj	!	!	!
4c	4rBB	4cc	4rd	f	2.rdd	.	.
4.d-	4rBB	(>4.dd-	4rd	.	.	.	.
.	4E-	.	4an 4g-X	.	.	.	.
8c	.	8cc	.	.	.	.	.
=2	=2	=2	=2	=2	=2	=2	=2
8B-L	2D-	8b-L	2f	.	2.rdd	.	.
8A-J	.	8a-yXJ	.	.	.	.	.
4G	.	4g)	.	.	.	.	.
4r	4rEEyy	4r	4rcyy	.	.	.	.
=3	=3	=3	=3	=3	=3	=3	=3
8B-L	2C	(>8b-L	2.en	.	2.rdd	.	.
8A-J	.	8a-J	.	.	.	.	.
2G	.	2g)	.	.	.	.	.
.	[<4BBn	.	.	.	.	.	.
=4	=4	=4	=4	=4	=4	=4	=4
2F	4BBnX]	2a-	8e-XL	>	2.rdd	.	.
.	.	.	8d-J	]	.	.	.
.	2C	.	4c	.	.	.	.
4En	.	4g	4B-	.	.	.	.
*v	*v	*	*	*	*	*	*
*	*v	*v	*	*	*	*
=5	=5	=5	=5	=5	=5
!	!	!LO:DY:rj	!	!	!LO:DY:a
*ped	*	*	*	*	*
!	!	!	!LO:TX:B:a:t=appass.	!	!
2F\ 2C\ 2FF\	2f 2c< 2A-<	ff	(>2f	Precz	.
4F\ 4FF\	4f 4c< 4A-<	.	8.c	z mo-	.
*Xped	*	*	*	*	*
.	.	.	16c	-ch	.
=6	=6	=6	=6	=6	=6
4F\ 4BB-\	4f 4d- 4B-	.	4d-	o-	.
4F/ 4FF/	4f 4c 4A-	.	4c)	-czu!	.
4r	4r	.	8r	.	.
!	!	!	!	!	!LO:DY:a
.	.	.	8f	po-	.
!!LO:LB:g=original
=7	=7	=7	=7	=7	=7
!	!	!LO:DY:rj	!	!	!LO:DY:a
2.D- 2.DD-	8fL 8A-<	p	(>2f	sÅ‚u-	p
.	8F<J	.	.	.	.
.	8fL 8B-<	.	.	.	.
.	8G<J	.	.	.	.
.	.	.	(16qqg/LL	.	.
.	.	.	16qqf/JJ	.	.
.	8fL 8Bn<	.	8en)	-cham	.
.	8A-<J	.	8f	od	.
=8	=8	=8	=8	=8	=8
2C\ 2CC\	8fL 8c	.	4a-	ra-	.
.	8A-<J	.	.	.	.
.	8enL 8c	.	4g)	-zu,	.
.	8G<J	.	.	.	.
4r	8d-L 8B-	.	4r	.	.
.	8cJ 8G<	.	.	.	.
=9	=9	=9	=9	=9	=9
!	!	!LO:DY:rj	!	!	!LO:DY:a
*ped	*	*	*	*	*
!	!	!	!	!	!LO:DY:rj
2F\ 2C\ 2FF\	2f 2c< 2A-<	ff	2f	Precz	f
4F\ 4FF\	4f 4c< 4A-<	.	8.c	z me-	.
*Xped	*	*	*	*	*
.	.	.	16c	-go	.
=10	=10	=10	=10	=10	=10
4D- 4DD-	4f 4d- 4A-< 4F<	.	4d-	ser-	.
2AAA- [<2AA-^	2f 2c< 2F<	.	4c	-ca!	.
.	.	.	8r	.	.
!	!	!	!	!	!LO:DY:a
.	.	.	8f	i	.
8Fq	.	.	.	.	.
=11	=11	=11	=11	=11	=11
!	!	!LO:DY:rj	!	!	!LO:DY:a
!	!	!	!	!	!LO:DY:rj
4AA-]	8fL 8Bn<	p	(>2f	ser-	p
.	8F<J	.	.	.	.
2GG	8fL 8B<	.	.	.	.
.	8G<J	.	.	.	.
.	.	.	(16qqg/LL	.	.
.	.	.	16qqf/JJ	.	.
.	8fL 8dn 8B<	.	8en)	-ce	.
.	8G<J	.	8f	po-	.
=12	=12	=12	=12	=12	=12
!	!	!LO:HP:a	!	!	!
2C\	8enL 8c	<	4a-	sÅ‚u-	.
.	8G<J	.	.	.	.
.	8eL 8c	.	4g)	-cha,	.
.	8G<J	.	.	.	.
4BB-\	8e-XL 8d-	.	4r	.	.
.	8G<J	[	.	.	.
!!LO:LB:g=original
=13	=13	=13	=13	=13	=13
*^	*	*	*	*	*
!	!	!	!	!	!	!LO:DY:rj
!	!	!	!	!	!	!LO:DY:a
*ped	*	*	*	*	*	*
!	!	!	!LO:DY:rj	!	!	!
2A- 2E-	2AA- 2AAA-	2e- 2c 2A-< 2E-<	fff	2a-	Precz	ff
4c 4A- 4E-	4AA- 4AAA-	4reyy	.	8.e-	z mey	.
*Xped	*	*	*	*	*	*
.	.	.	.	16e-	pa-	.
=14	=14	=14	=14	=14	=14	=14
4d- 4B-- 4F-X	4GG 4GGG	2ryy	.	4f-X^>	-miÄ™-	.
!LO:N:n=2:acc=n-	!	!	!	!	!	!
4d- 4B-X 4E-	2GG 2GGG	.	.	4e-	-ci!	.
4rAyy	.	8e-L 8d- 8B-	.	8r	.	.
!	!	!	!	!	!	!LO:DY:a
.	.	8E-<J	.	8e-	nie	.
*v	*v	*	*	*	*	*
=15	=15	=15	=15	=15	=15
!	!	!	!	!	!LO:DY:a
!	!	!	!	!	!LO:HP:a
2.AA-\ 2.AAA-\	8a-L 8e- 8c	p	(<8e-L	te-	<
.	8G-X<J	.	8a-	.	.
.	8a-L 8e- 8c	.	8gn	.	.
.	8G-<J	.	8a-J	.	[
!	!	!	!	!	!LO:HP:a
.	8a-L 8e- 8c	.	8.b-/	-go	>
.	8G-<J	.	.	.	]]
.	.	.	16a-)	roz-	[[
=16	=16	=16	=16	=16	=16
2.D-\ 2.DD-\	8a-L 8d-	.	(<2a-	-ka-	[
.	8F<J	.	.	.	.
.	8fL 8d-	.	.	.	.
.	8A-<J	.	.	.	.
.	8fL	.	4b-/)	-zu	[[
.	8G<J	.	.	.	.
=17	=17	=17	=17	=17	=17
2.C\ 2.CC\	8enL 8B-	.	2cc	Mo-	[
.	8G<J	.	.	.	.
.	8eL 8B-	.	.	.	.
.	8G<J	.	.	.	.
.	8eL 8B-	.	8.g	ja	.
.	8G<J	.	.	.	.
.	.	.	16g	i	.
!!LO:PB:g=original
=18	=18	=18	=18	=18	=18
2FF\	8fL 8c 8A-	.	2a-^>	two-	.
.	8F<J	.	.	.	.
.	8fL 8c 8A-	.	.	.	.
.	8F<J	.	.	.	.
!	!	!LO:HP:b=2	!	!	!
8AA-L	8fL 8c 8A-	<	4f	-ja	.
8BB-J	8F<J	[	.	.	.
=19	=19	=19	=19	=19	=19
!	!	!	!	!	!LO:HP:a
[<\2.C [<2.CC\	8enL 8B-	.	8.en	pa-	<
.	8G<J	.	.	.	.
.	.	.	16g	-miÄ™Ä‡	.
!	!	!	!	!	!LO:HP:a
.	8eL 8B-	.	4.dd-	nie	[>
.	8G<J	.	.	.	.
.	8eL 8B-	.	.	.	.
.	8G<J	.	8cc	po-	]]
=20	=20	=20	=20	=20	=20
2.C\] 2.CC\]	8fL 8c 8A-	.	4b-	-sÅ‚u-	.
.	8F<J	.	.	.	.
.	8fL 8c 8A-	.	4a-	-cha,	.
.	8F<J	.	.	.	.
.	8fL 8c 8A-	.	4r	.	.
.	8F<J	.	.	.	.
=21	=21	=21	=21	=21	=21
2.C\ 2.CC\	8enL 8c< 8G<	.	2cc	Mo-	.
.	8En<J	.	.	.	.
.	8eL 8c< 8G<	.	.	.	.
.	8E<J	.	.	.	.
.	8eL 8c< 8G<	.	8.g	-ja	.
.	8E<J	.	.	.	.
.	.	.	16g	i	.
=22	=22	=22	=22	=22	=22
2.C\ 2.CC\	8dnL 8Bn.	.	2a-	two-	.
.	8F<J	.	.	.	.
.	8dL 8B	.	.	.	.
.	8F<J	.	.	.	.
.	8d-XL 8B-	.	4f	-ja	.
.	8F<J	.	.	.	.
=23	=23	=23	=23	=23	=23
!	!LO:TX:B:t=poco rallent.	!	!LO:TX:B:a:t=poco rall.	!	!
2.C\ 2.CC\	8c<L 8A-<	.	8.Sc	pa-	.
.	8F<J	.	.	.	.
.	.	.	16c	miÄ™Ä‡	.
.	8d-<L 8B-< 8G<	.	4.a-	nie	.
.	8F<J	.	.	.	.
.	8c<L 8B-< 8G<	.	.	.	.
.	8En<J	.	8g	po-	.
!!LO:LB:g=original
=24	=24	=24	=24	=24	=24
!	!LO:TX:a:t=P:problem:mixed beam	!	!	!	!
4C\ 4FF\	(>/8A-<L< 8F</	.	4g	-sÅ‚u	.
.	8c\	p	.	.	.
4r	8f\	.	4f	-cha.	.
.	8a-\J)	.	.	.	.
4r	[>4cc	.	4r	.	.
=25	=25	=25	=25	=25	=25
4a- 4c 4F	(8ccL]	p	2.rdd	.	.
.	8ff	<	.	.	.
4r	8aa-	.	.	.	.
.	8bbnJ	.	.	.	.
4r	4ccc)	[	.	.	.
=26	=26	=26	=26	=26	=26
4r	(8aa-L	.	2.rdd	.	.
.	8ff	.	.	.	.
4r	8cc	.	.	.	.
.	8aa-J	.	.	.	.
*clefG2	*	*	*	*	*
4b- 4en 4c	4gg)	.	.	.	.
=27	=27	=27	=27	=27	=27
4a- 4f	(8ccL	<	2.rdd	.	.
.	8ff	.	.	.	.
4r	8aa-	.	.	.	.
.	8bbnJ	.	.	.	.
4r	4ccc)	[	.	.	.
=28	=28	=28	=28	=28	=28
4r	(8aa-L	>	2.rdd	.	.
.	8ff	.	.	.	.
4r	8cc	.	.	.	.
.	8aa-J	.	.	.	.
4b- 4en 4c	4gg)	]	.	.	.
=29	=29	=29	=29	=29	=29
4a- 4f	(8ccL	<	2.rdd	.	.
.	8ff	.	.	.	.
4r	8aa-	.	.	.	.
.	8bbnJ	.	.	.	.
4r	4ccc)	[	.	.	.
=30	=30	=30	=30	=30	=30
2.rdd	(8aa-L	>	2.rdd	.	.
.	8ff	.	.	.	.
.	8cc	.	.	.	.
.	8a-J	]	.	.	.
.	4f/)	.	.	.	.
*clefF4	*	*	*	*	*
=31	=31	=31	=31	=31	=31
2.FF\ 2FFF\	2.c< 2.A-< 2.F<	.	2.rdd	.	.
=32	=32	=32	=32	=32	=32
*ped	*	*	*	*	*
2.GG\ 2.GGG\	2.e- 2.B-<^ 2.E-<	.	2.rdd	.	.
*Xped	*	*	*	*	*
.	.	.	.	.	.
!!LO:LB:g=original
=33||	=33||	=33||	=33||	=33||	=33||
!!!OMD: Andantino espressivo.
*	*	*	*	*^	*
*M2/4	*M2/4	*	*M2/4	*	*	*
*	*	*	*	*	*	*
!!LO:TX:b:t=ð„‹	!LO:TX:a:t=ð„‹	!	!LO:TX:a:t=ð„‹	!	!	!
!	!	!	!	!	!	!LO:DY:a
!LO:TX:t=P:zÅ‚e wyÅ›wietlanie segno:problem	!LO:TX:t=P:zÅ‚e wyÅ›wietlanie segno:problem	!	!LO:TX:t=P:zÅ‚e wyÅ›wietlanie segno:problem	!	!	!
2AA-\	8e-L 8c 8A-	p	4e-	Jak	Na	mf
.	8E-<J	.	.	.	.	.
.	8e-L 8c	.	8a-	cieÅ„	kaÅ¼-	.
.	8A-<J	.	8g	tÃ©m	dÃ©m	.
=34	=34	=34	=34	=34	=34	=34
2D-\ 2DD-\	8fL 8d-	.	4Sf	dluÅ¼-	miÃ©y-	.
.	8A-<J	.	.	.	.	.
.	8fL 8d-	.	8g	-szy	-scu	.
.	8A-<J	.	8a-	gdy	i	.
=35	=35	=35	=35	=35	=35	=35
2GG\	8e-L 8d- 8B-	.	8.e-L	pa-	o	.
.	8E-<J	.	.	.	.	.
.	.	.	16fJk	.	.	.
.	8e-L 8d- 8B-	.	8e-	-dnie	kaÅ¼d-	.
.	8E-<J	.	8f	z da-	-dÃ©j	.
=36	=36	=36	=36	=36	=36	=36
2AA-\	8e-L 8c 8A-	.	8.e-L	-le-	do-	.
.	8E-<J	.	.	.	.	.
.	.	.	16d-Jk	.	.	.
.	8e-L 8c 8A-	.	4c	-ka,	-bie	.
.	8E-<J	.	.	.	.	.
=37	=37	=37	=37	=37	=37	=37
2AA-	8e-L 8c 8A-<	.	4e-	TÃ©m	Gdziem	.
.	8E-<J	.	.	.	.	.
!	!	!	!	!	!	!LO:HP:a
.	8dn<L 8B-<	.	8.f	sze-	z to-	<
.	8F<J	.	.	.	.	.
.	.	.	16f	-rzÃ©y	-bÄ…	.
=38	=38	=38	=38	=38	=38	=38
*	*	*	*	*	*	*
4GG\	8gL 8dn 8Bn	.	4g	ko-	pÅ‚a-	.
.	8G<J	.	.	.	.	.
4C\	8gL 8e- 8c	.	8g	-Å‚o	kaÅ‚,	.
.	8G<J	.	8a-	Å¼a-	gdziem	[
!!LO:PB:g=original
=39	=39	=39	=39	=39	=39	=39
8qBBB-/	.	.	.	.	.	.
*^	*	*	*	*	*	*
8GL	2BB-	4g 4e-	.	8ccL<	Å‚o-	siÄ™	.
!	!	!	!	!	!	!	!LO:HP:a
8B-J	.	.	.	8b-\J	.	.	>
8A-L	.	4f 4dn	.	8.f	-bne	z to-	]]
8B-J	.	.	.	.	.	.	.
.	.	.	.	16g	roz-	-bÄ…	]
*	*	*	*	*	*	*	*
=40	=40	=40	=40	=40	=40	=40	=40
8GL	2E- 2EE-	4e-	.	4f	-to-	ba-	.
8B-	.	.	.	.	.	.	.
8G	.	4r	.	8e-	-czy,	-wiÅ‚,	.
8B-J	.	.	.	8r	.	.	.
*v	*v	*	*	*	*	*	*
=41	=41	=41	=41	=41	=41	=41
2E- 2EE-	8gL 8e-	.	4b-	Tak	WszÄ™-	.
.	8B-J	.	.	.	.	.
.	8gL 8e-	.	8.cc	mo-	-dzie	.
.	8B-J	.	.	.	.	.
.	.	.	16b-	-ja	i	.
=42	=42	=42	=42	=42	=42	=42
*	*	*	*^	*	*	*
2E- 2EE-	8a-L 8f 8dn	.	4f	4.f	po-	zaw-	.
.	8B-J	.	.	.	.	.	.
.	8a-L 8f 8d	.	8b-	.	-staÄ‡	.	.
.	8B-J	.	8b-	8b-	im	-sze	.
*	*	*	*v	*v	*	*	*
=43	=43	=43	=43	=43	=43	=43
!	!	!	!	!	!	!LO:HP:a
4E- 4EE-	8gL 8e- 8d-X	.	8.an	da-	bÄ™-	<
.	8B-J	.	.	.	.	.
.	.	.	16b-	.	-dÄ™	[
!	!	!	!	!	!	!LO:HP:a
4D- 4DD-	8gL 8e-	.	8.cc	lÃ©y	ja	>
.	8B-J	.	.	.	.	.
.	.	.	16b-	u	przy	]
=44	=44	=44	=44	=44	=44	=44
4C\ 4CC\	8a-L 8e-	.	4e-	cie-	to-	.
.	8A-<J	.	.	.	.	.
.	.	.	(16qqg/LL	.	.	.
.	.	.	16qqf/JJ	.	.	.
4BB-\ 4BBB-\	8e-L 8d- 8G<	.	4e-)	-ka	-bie	.
.	8E-<J	.	.	.	.	.
!!LO:LB:g=original
=45	=45	=45	=45	=45	=45	=45
*^	*	*	*	*	*	*
*ped	*	*	*	*	*	*	*
!	!	!	!LO:DY:rj	!	!	!	!
2E-	4AA-	8e-/L 8c/ 8A-/	pp	4e-	TÃ©m	Bom	.
.	.	8e-/	.	.	.	.	.
!	!	!	!	!	!	!	!LO:HP:a
!	!	!LO:TX:a:t=P:problem:mixed beam	!	!	!	!	!
.	4EE-	8ee-\	.	8.a-	grub-	wszÄ™-	<
.	.	8e-\J	.	.	.	.	.
.	.	.	.	16b-	-szym	-dzie	[
*Xped	*	*	*	*	*	*	*
=46	=46	=46	=46	=46	=46	=46	=46
2E-	4AA-	8e-/L 8c/ 8A-/	.	4cc	ki-	czÄ…st-	.
.	.	8e-/	.	.	.	.	.
!	!	!	!	!	!	!	!LO:HP:a
!	!	!LO:TX:a:t=P:problem:mixed beam	!	!	!	!	!
.	4EE-	8ee-\	.	8.dd-	-rem	-kÄ™	>
.	.	8e-\J	.	.	.	.	.
.	.	.	.	16cc	twÄ…	mÃ©y	]
=47	=47	=47	=47	=47	=47	=47	=47
2E-	4BB-	8e-/L 8d-/ 8G</	.	8ccL	pa-	du-	[
.	.	8e-/	.	8b-J	.	.	.
!	!	!	!	!	!	!	!LO:DY:a
!	!	!LO:TX:a:t=P:problem:mixed beam	!	!	!	!	!
.	4EE-	8ee-\	.	8g	-miÄ™Ä‡	-szy	.
.	.	8e-\J	.	8f	po-	zo-	.
=48	=48	=48	=48	=48	=48	=48	=48
2E-	4BB-	8e-/L 8d-/ 8G</	.	4.f	-mro-	-sta-	[
.	.	8e-/	.	.	.	.	.
!	!	!LO:TX:a:t=P:problem:mixed beam	!	!	!	!	!
.	4EE-	8ee-\	.	.	.	.	.
.	.	8e-\J	.	8e-	-czy	-wiÅ‚	.
*v	*v	*	*	*	*	*	*
=49	=49	=49	=49	=49	=49	=49
4E-/ 4AA-/	8e-/L 8c/ 8A-/	.	4e-	TÃ©m	Bom	.
.	8e-/	.	.	.	.	.
!	!	!	!	!	!	!LO:HP:a
!	!LO:TX:a:t=P:problem:mixed beam	!	!	!	!	!
4r	8ee-\	.	8.a-	grub-	wszÄ™-	<
.	8e-\J	.	.	.	.	.
.	.	.	16b-	-szym	-dzie	[[
=50	=50	=50	=50	=50	=50	=50
*	*^	*	*	*	*	*
!	!	!	!	!	!	!	!LO:HP:a
8r	8r	8reyy	.	4cc	ki-	czÄ…st-	>
8cL 8G 8C	4cc	8enL	<	.	.	.	.
8c 8A- 8F	.	8f	.	8cc	-rem	-kÄ™	]
8e-J 8B- 8E-	8ee-	8gJ	[	8b-	twÄ…	mÃ©y	.
*	*v	*v	*	*	*	*	*
!!LO:LB:g=original
=51	=51	=51	=51	=51	=51	=51
8e- 8A-	8cc/ 8a-/	.	4Se-	pa-	du-	.
8r	8e-L 8c	>	.	.	.	.
4E- 4EE-	8dn 8Bn	.	8f	-miÄ™Ä‡	-szy	.
.	8d-XJ 8B-X	]	8g	po-	zo-	.
=52	=52	=52	=52	=52	=52	=52
8E- 8AA-	8a- 8c 8A-	.	8b-/	-mro-	-sta-	.
!	!	!LO:DY:rj	!	!	!	!
!LO:TX:a:t=legatiss.	!	!	!	!	!	!
8r	(>8aa-L	p	8a-	-czy.	wiÅ‚.	.
4r	8cc	.	4r	.	.	.
.	8ffJ)	.	.	.	.	.
*	*	*	*	*v	*v	*
=53	=53	=53	=53	=53	=53
8f>\L	(>8ddnL> 8a-	.	2rdd	.	.
8e->\	8ee- 8g	.	.	.	.
!LO:TX:a:t=P:problem:mixed beam	!	!	!	!	!
8A-/	8cc 8g-X	.	.	.	.
8d-/J	8dd-XJ 8f)	.	.	.	.
=54	=54	=54	=54	=54	=54
(8dnL	(>8bnL 8f	.	2rdd	.	.
8c	8cc 8en	.	.	.	.
8F	8a- 8e-X	.	.	.	.
8B-J)	8bJ 8dn)	.	.	.	.
=55	=55	=55	=55	=55	=55
*	*^	*	*	*	*
(8EnL	8g	8d-XL	.	2rdd	.	.
8F	4a-	8cJ	.	.	.	.
8D-	.	4B-	.	.	.	.
8E-XJ)	8g 8d-	.	.	.	.	.
*	*v	*v	*	*	*	*
=56	=56	=56	=56	=56	=56
!!LO:TX:a:B:t=1
*>A1	*>A1	*>A1	*>A1	*>A1	*>A1
*ped	*	*	*	*	*
4AA-\ 4AAA-\	8a- 8cL	.	2rdd	.	.
.	8E-<	.	.	.	.
4rBBB	8e- 8c 8A-	.	.	.	.
*Xped	*	*	*	*	*
.	8E-<J	.	.	.	.
!LO:TX:t=ð„‹	!LO:TX:a:t=ð„‹	!	!LO:TX:a:t=ð„‹	!	!
=57||	=57||	=57||	=57||	=57||	=57||
!!LO:TX:a:B:t=2
*>A2	*>A2	*>A2	*>A2	*>A2	*>A2
2E-/ 2AA-/	2a- 2c	.	2rdd	.	.
==	==	==	==	==	==
*-	*-	*-	*-	*-	*-
!!title: @{OTL}; @{OPS} @{ONM} publisher: @{PPR}
!!!system-decoration: (s1){(s2,s3)}
!!!RDF**kern: > = above
!!!RDF**kern: < = below
!!!RDF**dynam: < = "cresc.", 'fontstyle="normal"
!!!RDF**dynam: > = "dim.", 'fontstyle="normal"
!!!ENC: Antoni SzymaÅ„ski
!!!END: 2019-08-26
!!!EED: Mateusz Mrugas
!!!EST: revision finished 2019-10-17
!!!rism-genre: Precz z moich oczu
!!!rism-key: F minor
!!!rism-opus: op.  74, no. 6
!!!rism-title: Fuis mes regards in F minor op.  74, no. 6
!!!rism-permalink: https://opac.rism.info/search?id=300605192&View=rism
!!!rism-773a-OPR: 300605186
!!!rism-parent-permalink: https://opac.rism.info/search?id=300605186&View=rism
